X: 1
T: Brudmarsch fr. H\"alsingland
R: march
Z: 2017 John Chambers <jc:trillian.mit.edu>
S: printed page of unknown origin
S: https://www.youtube.com/watch?v=KM7-zGRzfK8
S: https://www.youtube.com/watch?v=me2nRtLHn6c
S: https://vimeo.com/14436432
M: 2/4
L: 1/16
K: C
G2 |\
"C"[c4E4G,2] (cd)cB | c2d2 e2c2 | "F"A4 (F3G) | F4 z2(GF) |\
"C"E2G2 c2e2 | "G7"g2(ag) f2d2 | "C"c4 "G7"(BA)Bd | "C"c4 z2 :|
|: g2 |\
"C"(ag)^fg (ag)fg | c'2g2 e2c2 | "G7"B4 [G3-G,3-][GG,] | [G4G,3] z2g2 |\
{g}f2df "C"e2c2 | "G7"{g}f2df "C"e2c2 | "(G7)"g4 gfga | "G7"g2f2 e2d2 |
"C"[c4E4G,2] (cd)cB | c2d2 e2c2 | "F"A4 (F3G) | F4 z2(GF) |\
"C"E2G2 c2e2 | "G7"g2(ag) f2d2 | "C"c4 "G7"(BA)Bd | "C"c4 z2 :|
